src/pos-icons/filmstrip.svg

<svg height="24" viewBox="0 0 24 24" width="24" xmlns="http://www.w3.org/2000/svg"><path d="m18 9h-2v-2h2m0 6h-2v-2h2m0 6h-2v-2h2m-10-6h-2v-2h2m0 6h-2v-2h2m0 6h-2v-2h2m10-12v2h-2v-2h-8v2h-2v-2h-2v18h2v-2h2v2h8v-2h2v2h2v-18z"/></svg>

<?xml version="1.0" encoding="UTF-8"?><!DOCTYPE svg PUBLIC "-//W3C//DTD SVG 1.1//EN" "http://www.w3.org/Graphics/SVG/1.1/DTD/svg11.dtd"><svg xmlns="http://www.w3.org/2000/svg" xmlns:xlink="http://www.w3.org/1999/xlink" version="1.1" id="mdi-filmstrip" width="24" height="24" viewBox="0 0 24 24"><path d="M18,9H16V7H18M18,13H16V11H18M18,17H16V15H18M8,9H6V7H8M8,13H6V11H8M8,17H6V15H8M18,3V5H16V3H8V5H6V3H4V21H6V19H8V21H16V19H18V21H20V3H18Z" /></svg>
